X:93
T:False Lover - Satterley
C:Taken down from S. Satcherley by H.Fl.S.
C:A far finer tune taken down by C. Sharp at Hambridge, Somersetshire
%%VWML:SBG-1-1-452-0
F:http://www.vwml.org/record/SBG/1/1/452
Z:Original Sibleius Transcription by Martin and Shan Graebe
L:1/16
M:6/8
I:linebreak $
K:G
d2 | A3 B c2 d3 d d2 | A3 B c2 d4 d2 | B3 A G2 A2 A2 A2 | G3 F E2 D4 d2 | A3 B c2 d2 d2 d2 |$ 
A3 B c2 !fermata!d4 d2 | B3 A G2 A3 G E2 | D2 G4 z4 d2 | B3 A G2 A3 G E2 | 
D2 !fermata!G4 z2  |] 



